X: 20181
T: Jock Brown's 70th
R: reel
M: 4/4
K: Amixolydian
cd|e4 efed|cA A/A/A eAcA|g4 gfga|f4 fefg|
aeed e2ed|cA A/A/A eAcA|GA A/A/A d2dA|GAde d2:|
|:cd|a2cd ecde|cdac decd|a2cd ecde|cdac dg g/g/g|
a2cd ecde|cdac decA|GA A/A/A d2dA|GAde d2:|
|:dc|A2GA AGA2|GAAG A2dc|A2GA AGA2|GAde d2dc|
A2GA AGA2|GAAG A2dA|GAde d2dA|dcde d2:|

